public/avatar/body/118.svg

<svg xmlns:xlink="http://www.w3.org/1999/xlink" height="82" width="84.85" xmlns="http://www.w3.org/2000/svg"><g transform="translate(37.4 42.25)"><use height="38" transform="translate(-11.95 -17.45)" width="32.05" xlink:href="#a"/><use height="38.95" transform="translate(-12.45 -17.95)" width="33.05" xlink:href="#b"/><use height="16.85" transform="translate(-11.3 .15)" width="30.2" xlink:href="#c"/><use height="24.1" transform="matrix(-1 0 0 1 4.85 -1.1)" width="23.95" xlink:href="#d"/><use height="24.1" transform="translate(3.05 -1.1)" width="23.95" xlink:href="#d"/><use height="22" transform="translate(-11.1 -.35)" width="30.9" xlink:href="#e"/></g><defs><use height="38" width="32.05" xlink:href="#f" id="a"/><use height="38.95" width="33.05" xlink:href="#g" id="b"/><use height="24.1" width="23.95" xlink:href="#h" id="d"/><g id="c" fill-rule="evenodd"><path d="M18.9.85q.25 5.6-2.65 10.35-3.2 5.15-9.2 5.65-6.1.9-10.75-3.5-4.15-3.8-6.3-9.1-.85-2-1.3-4.1Q-7.25 3.8-2.35 5.9q5.55 2.3 11.2 1 4.65-1.2 8.1-4.25L18.9.85" transform="translate(11.3 -.15)"/><path d="m10.55 11.5-.15-.1-1.75-.8 1.95-1.9 1.35.8-1.3 1.85-.1.15m3.1-4.2-.15.2q-.4.15-1.05 1.2l-1.15-.75 1.2-1.2 1.05.45.1.1m-9.45.95h1.55l-.45.55-.6-.3-.5-.25m-2.95-.1L.3 9.5l-2.1-1.15 1-.95 1.25.35.8.4M2.5 11.8l-1.05 1.1-1.6-1.2.15-.15.6-.75 1.9 1m.7-.75L1.15 10 2.3 8.45q.15.35 1.5.8l.8.3-1.4 1.5m5.25-3.1h.15l1.45-.15-2.35 2.35-1.6-.75 1.05-1.25.65-.1h.05l.6-.1m-1.5 2.95-1.4 1.4-1.45-.75 1.35-1.4 1.5.75m2.9 1.35-1.45 1.6-1.95-1.05 1.45-1.45 1.95.9m-2.05 2.4-.15.25-.75.6-.65.7L5 15.55l-.85-.45 1.55-1.55 2.1 1.1m-4.5-.05-1.15-.95 1.3-1.35 1.35.75-1.45 1.45-.05.1m-4.1-3.65-.1.25q-.75-.5-2.35-1.15l.7-.9 2.2 1.2-.45.6" fill="#454545" transform="translate(11.3 -.15)"/></g><g id="h"><path d="M39.2.95Q35.7 2.8 33 5.2l-.05.05q-5.7 5.1-7.85 12.9l1.5-.3q2.5-.7 5-2.7l.15-.1.4-.35.4-.35q-.75 2.3-2.25 3.8L27 20.9l3.3-2.75q1.5-1.5 2.25-3.8l.2-.2q-.55 1.8-1.65 3.2-1.65 2.2-4.1 3.55-1.95 1-4.35 1.55l-5.85.65 5.85-.65-1.95.3-3.9.35h-.55l-.5-4.45q4.4-3.7 9.85-9.9l5.15-5.85.95-2.45q4.35-1.1 7.5.5" fill="#585858" fill-rule="evenodd" transform="translate(-15.75 .5)"/><path d="m35.6 10.8-.2.25L32.9 14l-.75.7.75-.7-.15.15-.2.2-.4.35-.4.35-.15.1q-2.5 2-5 2.7l-1.5.3q2.15-7.8 7.85-12.9L33 5.2q2.7-2.4 6.2-4.25 0 2.55-1.1 5.4l-2.35 4.2-.15.25" fill="#3c3c3c" fill-rule="evenodd" transform="translate(-15.75 .5)"/><path d="m35.4 11.05.2-.25m.15-.25 2.35-4.2q1.1-2.85 1.1-5.4Q35.7 2.8 33 5.2l-.05.05q-5.7 5.1-7.85 12.9m6.65-3.1.4-.35.75-.7m-16.1 9.1 5.85-.65.95-.1q1.65-.4 3.4-1.45l3.3-2.75q1.5-1.5 2.25-3.8M39.2.95q-3.15-1.6-7.5-.5" fill="none" stroke="#000" stroke-linecap="round" stroke-linejoin="round" transform="translate(-15.75 .5)"/><path d="m25.1 18.15 1.5-.3q2.5-.7 5-2.7" fill="none" stroke="#232323" stroke-linecap="round" stroke-linejoin="round" transform="translate(-15.75 .5)"/></g><g id="e" fill-rule="evenodd"><path d="M3 15.4q1.7 2.15 1.15 3.5-.5 1.1-2.35 1.45-1.9.35-2.75-.55v-1.05q.25-1.55-.15-3.05-.1-.4-1.35-2.05-.95-1.2-.5-2.2l.1-.55q1.25.2 2.55 1.5l3.3 3" fill="#3c3c3c" transform="translate(11.1 .35)"/><path d="m19.8 3.35-1.2 1.4q-1.45-.8-3-.8l3.2-3.9 1 3.3" fill="#782714" transform="translate(11.1 .35)"/><path d="M15.6 3.95q1.55 0 3 .8l-3.8 4.2-3-.1-.6-.2 4.4-4.7" fill="#ff3d2b" transform="translate(11.1 .35)"/><path d="m12.2 11.85-.4.4-.3.4-4.1.4 2.4-2.9 2.8-.2 1.3.1-1.7 1.8" fill="#782714" transform="translate(11.1 .35)"/><path d="m13.7 10.05-1.3-.1-2.8.2 1.3-1.3.1-.2.6.2 3 .1-.9 1.1M7 14.45l-1.1.3 1.3-1.7 4.1-.4-1 1-3.3.8" fill="#bc2e1f" transform="translate(11.1 .35)"/><path d="m10.5 13.65-.7.9-5 7.1h-4l5.3-6.9 1.1-.3 3.3-.8" fill="#762514" transform="translate(11.1 .35)"/><path d="m.6 10.45 6 6.3-1.7 2-7-6.7 2.7-1.6" fill="#762514" transform="translate(11.1 .35)"/><path d="m-9.9 3.45 2.2-.6 2.9 2.9-2.5.9-2.6-3.2" fill="#ff3d2b" transform="translate(11.1 .35)"/><path d="m-7.7 2.85-2.2.6-1.2-1.8.5-2 6.4 6.5-2.7.9-.4-.4 2.5-.9-2.9-2.9" fill="#782714" transform="translate(11.1 .35)"/><path d="m-6.9 7.05 2.7-.9 2.2 2-3.3 1-1.6-2.1" fill="#ff3d2b" transform="translate(11.1 .35)"/><path d="m-5.3 9.15 3.3-1 2.6 2.3-2.7 1.6-3.2-2.9" fill="#bc2e1f" transform="translate(11.1 .35)"/></g><path d="M27.35 7.4q2.15 4.15 3.55 8.75 1.45 4.7 1.15 9.5-.35 4.95-4.2 8.1-3.8 3.2-8.75 4.05l-2.6.2q-3.6 0-7.05-1.15-4.65-1.6-7.1-5.5Q-.2 27.4.05 23q.2-4.4 2-9.3Q3.85 8.75 7 5.05 10.1 1.3 14.7.1l1.8-.1q1.9.05 3.7.8 4.75 2.05 7.15 6.6" fill="#fff" fill-rule="evenodd" transform="translate(-.05)" id="f"/><path d="M27.35 7.4Q24.95 2.85 20.2.8 17.55-.3 14.7.1 10.1 1.3 7 5.05q-3.15 3.7-4.95 8.65-1.8 4.9-2 9.3-.25 4.4 2.3 8.35 2.45 3.9 7.1 5.5 4.65 1.55 9.65.95 4.95-.85 8.75-4.05 3.85-3.15 4.2-8.1.3-4.8-1.15-9.5-1.4-4.6-3.55-8.75Z" fill="none" stroke="#333" stroke-linecap="round" stroke-linejoin="round" transform="translate(.45 .5)" id="g"/></defs></svg>

<?xml version="1.0" encoding="UTF-8" standalone="no"?>
<svg xmlns:xlink="http://www.w3.org/1999/xlink" height="82.0px" width="84.85px" xmlns="http://www.w3.org/2000/svg">
  <g transform="matrix(1.0, 0.0, 0.0, 1.0, 37.4, 42.25)">
    <use height="38.0" transform="matrix(1.0, 0.0, 0.0, 1.0, -11.95, -17.45)" width="32.05" xlink:href="#sprite0"/>
    <use height="38.95" transform="matrix(1.0, 0.0, 0.0, 1.0, -12.45, -17.95)" width="33.05" xlink:href="#sprite1"/>
    <use height="16.85" transform="matrix(1.0, 0.0, 0.0, 1.0, -11.3, 0.15)" width="30.2" xlink:href="#shape2"/>
    <use height="24.1" transform="matrix(-1.0, 0.0, 0.0, 1.0, 4.85, -1.1)" width="23.95" xlink:href="#sprite2"/>
    <use height="24.1" transform="matrix(1.0, 0.0, 0.0, 1.0, 3.05, -1.1)" width="23.95" xlink:href="#sprite2"/>
    <use height="22.0" transform="matrix(1.0, 0.0, 0.0, 1.0, -11.1, -0.35)" width="30.9" xlink:href="#shape4"/>
  </g>
  <defs>
    <g id="sprite0" transform="matrix(1.0, 0.0, 0.0, 1.0, -0.05, 0.0)">
      <use height="38.0" transform="matrix(1.0, 0.0, 0.0, 1.0, 0.05, 0.0)" width="32.05" xlink:href="#shape0"/>
    </g>
    <g id="shape0" transform="matrix(1.0, 0.0, 0.0, 1.0, -0.05, 0.0)">
      <path d="M27.35 7.4 Q29.5 11.55 30.9 16.15 32.35 20.85 32.05 25.65 31.7 30.6 27.85 33.75 24.05 36.95 19.1 37.8 L16.5 38.0 Q12.9 38.0 9.45 36.85 4.8 35.25 2.35 31.35 -0.2 27.4 0.05 23.0 0.25 18.6 2.05 13.7 3.85 8.75 7.0 5.05 10.1 1.3 14.7 0.1 L16.5 0.0 Q18.4 0.05 20.2 0.8 24.95 2.85 27.35 7.4" fill="#ffffff" fill-rule="evenodd" stroke="none"/>
    </g>
    <g id="sprite1" transform="matrix(1.0, 0.0, 0.0, 1.0, 0.45, 0.5)">
      <use height="38.95" transform="matrix(1.0, 0.0, 0.0, 1.0, -0.45, -0.5)" width="33.05" xlink:href="#shape1"/>
    </g>
    <g id="shape1" transform="matrix(1.0, 0.0, 0.0, 1.0, 0.45, 0.5)">
      <path d="M27.35 7.4 Q24.95 2.85 20.2 0.8 17.55 -0.3 14.7 0.1 10.1 1.3 7.0 5.05 3.85 8.75 2.05 13.7 0.25 18.6 0.05 23.0 -0.2 27.4 2.35 31.35 4.8 35.25 9.45 36.85 14.1 38.4 19.1 37.8 24.05 36.95 27.85 33.75 31.7 30.6 32.05 25.65 32.35 20.85 30.9 16.15 29.5 11.55 27.35 7.4 Z" fill="none" stroke="#333333" stroke-linecap="round" stroke-linejoin="round" stroke-width="1.0"/>
    </g>
    <g id="shape2" transform="matrix(1.0, 0.0, 0.0, 1.0, 11.3, -0.15)">
      <path d="M18.9 0.85 Q19.15 6.45 16.25 11.2 13.05 16.35 7.05 16.85 0.95 17.75 -3.7 13.35 -7.85 9.55 -10.0 4.25 -10.85 2.25 -11.3 0.15 -7.25 3.8 -2.35 5.9 3.2 8.2 8.85 6.9 13.5 5.7 16.95 2.65 L18.9 0.85" fill="#000000" fill-rule="evenodd" stroke="none"/>
      <path d="M10.55 11.5 L10.4 11.4 8.65 10.6 10.6 8.7 11.95 9.5 10.65 11.35 10.55 11.5 M13.65 7.3 L13.5 7.5 Q13.1 7.65 12.45 8.7 L11.3 7.95 12.5 6.75 13.55 7.2 13.65 7.3 M4.2 8.25 L4.9 8.25 5.75 8.25 5.3 8.8 4.7 8.5 4.2 8.25 M1.25 8.15 L0.3 9.5 -1.8 8.35 -0.8 7.4 0.45 7.75 1.25 8.15 M2.5 11.8 L1.45 12.9 -0.15 11.7 0.0 11.55 0.6 10.8 2.5 11.8 M3.2 11.05 L1.15 10.0 2.3 8.45 Q2.45 8.8 3.8 9.25 L4.6 9.55 3.2 11.05 M8.45 7.95 L8.6 7.95 10.05 7.8 7.7 10.15 6.1 9.4 7.15 8.15 7.8 8.05 7.85 8.05 8.45 7.95 M6.95 10.9 L5.55 12.3 4.1 11.55 5.45 10.15 6.95 10.9 M9.85 12.25 L8.4 13.85 6.45 12.8 7.9 11.35 9.85 12.25 M7.8 14.65 L7.65 14.9 6.9 15.5 6.25 16.2 5.0 15.55 4.15 15.1 5.7 13.55 7.8 14.65 M3.3 14.6 L2.15 13.65 3.45 12.3 4.8 13.05 3.35 14.5 3.3 14.6 M-0.8 10.95 L-0.9 11.2 Q-1.65 10.7 -3.25 10.05 L-2.55 9.15 -0.35 10.35 -0.8 10.95" fill="#454545" fill-rule="evenodd" stroke="none"/>
    </g>
    <g id="sprite2" transform="matrix(1.0, 0.0, 0.0, 1.0, -15.75, 0.5)">
      <use height="24.1" transform="matrix(1.0, 0.0, 0.0, 1.0, 15.75, -0.5)" width="23.95" xlink:href="#shape3"/>
    </g>
    <g id="shape3" transform="matrix(1.0, 0.0, 0.0, 1.0, -15.75, 0.5)">
      <path d="M39.2 0.95 Q35.7 2.8 33.0 5.2 L32.95 5.25 Q27.25 10.35 25.1 18.15 L26.6 17.85 Q29.1 17.15 31.6 15.15 L31.75 15.05 32.15 14.7 32.55 14.35 Q31.8 16.65 30.3 18.15 L27.0 20.9 30.3 18.15 Q31.8 16.65 32.55 14.35 L32.75 14.15 Q32.2 15.95 31.1 17.35 29.45 19.55 27.0 20.9 25.05 21.9 22.65 22.45 L16.8 23.1 22.65 22.45 20.7 22.75 16.8 23.1 16.25 23.1 15.75 18.65 Q20.15 14.95 25.6 8.75 L30.75 2.9 31.7 0.45 Q36.05 -0.65 39.2 0.95" fill="#585858" fill-rule="evenodd" stroke="none"/>
      <path d="M35.6 10.8 L35.4 11.05 32.9 14.0 32.15 14.7 32.9 14.0 32.75 14.15 32.55 14.35 32.15 14.7 31.75 15.05 31.6 15.15 Q29.1 17.15 26.6 17.85 L25.1 18.15 Q27.25 10.35 32.95 5.25 L33.0 5.2 Q35.7 2.8 39.2 0.95 39.2 3.5 38.1 6.35 L35.75 10.55 35.6 10.8" fill="#3c3c3c" fill-rule="evenodd" stroke="none"/>
      <path d="M35.4 11.05 L35.6 10.8 M35.75 10.55 L38.1 6.35 Q39.2 3.5 39.2 0.95 35.7 2.8 33.0 5.2 L32.95 5.25 Q27.25 10.35 25.1 18.15 M31.75 15.05 L32.15 14.7 32.9 14.0 M16.8 23.1 L22.65 22.45 23.6 22.35 Q25.25 21.95 27.0 20.9 L30.3 18.15 Q31.8 16.65 32.55 14.35 M39.2 0.95 Q36.05 -0.65 31.7 0.45" fill="none" stroke="#000000" stroke-linecap="round" stroke-linejoin="round" stroke-width="1.0"/>
      <path d="M25.1 18.15 L26.6 17.85 Q29.1 17.15 31.6 15.15" fill="none" stroke="#232323" stroke-linecap="round" stroke-linejoin="round" stroke-width="1.0"/>
    </g>
    <g id="shape4" transform="matrix(1.0, 0.0, 0.0, 1.0, 11.1, 0.35)">
      <path d="M3.0 15.4 Q4.7 17.55 4.15 18.9 3.65 20.0 1.8 20.35 -0.1 20.7 -0.95 19.8 L-0.95 18.75 Q-0.7 17.2 -1.1 15.7 -1.2 15.3 -2.45 13.65 -3.4 12.45 -2.95 11.45 L-2.85 10.9 Q-1.6 11.1 -0.3 12.4 L3.0 15.4" fill="#3c3c3c" fill-rule="evenodd" stroke="none"/>
      <path d="M19.8 3.35 L18.6 4.75 Q17.15 3.95 15.6 3.95 L18.8 0.05 19.8 3.35" fill="#782714" fill-rule="evenodd" stroke="none"/>
      <path d="M15.6 3.95 Q17.15 3.95 18.6 4.75 L14.8 8.95 11.8 8.85 11.2 8.65 15.6 3.95" fill="#ff3d2b" fill-rule="evenodd" stroke="none"/>
      <path d="M12.2 11.85 L11.8 12.25 11.5 12.65 7.4 13.05 9.8 10.15 12.6 9.95 13.9 10.05 12.2 11.85" fill="#782714" fill-rule="evenodd" stroke="none"/>
      <path d="M13.7 10.05 L12.4 9.95 9.6 10.15 10.9 8.85 11.0 8.65 11.6 8.85 14.6 8.95 13.7 10.05" fill="#bc2e1f" fill-rule="evenodd" stroke="none"/>
      <path d="M7.0 14.45 L5.9 14.75 7.2 13.05 11.3 12.65 10.3 13.65 7.0 14.45" fill="#bc2e1f" fill-rule="evenodd" stroke="none"/>
      <path d="M10.5 13.65 L9.8 14.55 4.8 21.65 0.8 21.65 6.1 14.75 7.2 14.45 10.5 13.65" fill="#762514" fill-rule="evenodd" stroke="none"/>
      <path d="M0.6 10.45 L6.6 16.75 4.9 18.75 -2.1 12.05 0.6 10.45" fill="#762514" fill-rule="evenodd" stroke="none"/>
      <path d="M-9.9 3.45 L-7.7 2.85 -4.8 5.75 -7.3 6.65 -9.9 3.45" fill="#ff3d2b" fill-rule="evenodd" stroke="none"/>
      <path d="M-7.7 2.85 L-9.9 3.45 -11.1 1.65 -10.6 -0.35 -4.2 6.15 -6.9 7.05 -7.3 6.65 -4.8 5.75 -7.7 2.85" fill="#782714" fill-rule="evenodd" stroke="none"/>
      <path d="M-6.9 7.05 L-4.2 6.15 -2.0 8.15 -5.3 9.15 -6.9 7.05" fill="#ff3d2b" fill-rule="evenodd" stroke="none"/>
      <path d="M-5.3 9.15 L-2.0 8.15 0.6 10.45 -2.1 12.05 -5.3 9.15" fill="#bc2e1f" fill-rule="evenodd" stroke="none"/>
    </g>
  </defs>
</svg>
